assets/svg/1F428.svg

<svg xmlns="http://www.w3.org/2000/svg" viewBox="0 0 64 64" enable-background="new 0 0 64 64"><g transform="translate(0 2)"><path d="m55.41 2.02c-8.888-5.58-13.235 1.694-19.385 11.483-6.157 9.793-11.786 18.382-2.898 23.966 8.909 5.607 21.11 2.195 27.26-7.587 6.149-9.781 3.929-22.261-4.979-27.862" fill="#729aaf"/><path d="m53.44 7.105c-7.227-4.546-10.761 1.378-15.766 9.34-5.01 7.963-9.586 14.951-2.355 19.494 7.245 4.563 17.17 1.782 22.17-6.174 5-7.953 3.197-18.11-4.049-22.66" fill="#ed2e7c"/><path d="m8.63 2.02c8.887-5.58 13.235 1.695 19.385 11.484 6.155 9.793 11.784 18.382 2.897 23.966-8.91 5.607-21.11 2.195-27.27-7.587-6.146-9.782-3.928-22.262 4.983-27.863" fill="#658999"/><path d="m10.602 7.105c7.226-4.546 10.762 1.378 15.766 9.34 5.01 7.963 9.587 14.951 2.358 19.494-7.247 4.563-17.17 1.782-22.17-6.174-5-7.953-3.201-18.11 4.05-22.66" fill="#ed2e7c"/><g fill="#729aaf"><path d="m18.952 50.03c0-6.332 5.387-6.215 12.733-6.215 7.353 0 13.875-.117 13.875 6.215 0 6.339-5.956 11.474-13.301 11.474-7.344 0-13.307-5.135-13.307-11.474"/><path d="m.646 37.24c0-17.463 14.15-31.614 31.613-31.614 17.462 0 31.613 14.15 31.613 31.614 0 17.46-14.15 19.19-31.613 19.19-17.462.0001-31.613-1.73-31.613-19.19"/></g><path d="m42.896 54.03c-20.615 20.01-51.703-29.22-16.533-47.835-14.642 2.764-25.717 15.598-25.717 31.04 0 13.448 8.407 17.553 20.242 18.734 2.335 3.313 6.548 5.535 11.371 5.535 4.822 0 9.04-2.22 11.367-5.535.102-.001.192-.025.288-.037-.335-.635-.675-1.27-1.018-1.906" fill="#658999"/><g fill="#25333a"><path d="m23.923 45.41c0-3.968 3.378-11.952 7.978-11.952 4.607 0 8.695 7.984 8.695 11.952 0 3.974-3.732 7.189-8.336 7.189-4.604.0001-8.337-3.215-8.337-7.189"/><ellipse cx="20.967" cy="30.881" rx="3.37" ry="4.086"/><ellipse cx="43.16" cy="31.02" rx="3.37" ry="4.086"/></g></g></svg>

<?xml version="1.0" encoding="UTF-8" standalone="no"?>
<!-- Generator: Adobe Illustrator 16.0.0, SVG Export Plug-In . SVG Version: 6.00 Build 0)  -->

<svg
   xmlns:dc="http://purl.org/dc/elements/1.1/"
   xmlns:cc="http://creativecommons.org/ns#"
   xmlns:rdf="http://www.w3.org/1999/02/22-rdf-syntax-ns#"
   xmlns:svg="http://www.w3.org/2000/svg"
   xmlns="http://www.w3.org/2000/svg"
   xmlns:sodipodi="http://sodipodi.sourceforge.net/DTD/sodipodi-0.dtd"
   xmlns:inkscape="http://www.inkscape.org/namespaces/inkscape"
   version="1.1"
   id="Layer_1"
   x="0px"
   y="0px"
   width="64px"
   height="64px"
   viewBox="0 0 64 64"
   enable-background="new 0 0 64 64"
   xml:space="preserve"
   inkscape:version="0.48.5 r10040"
   sodipodi:docname="1F428.svg"
   inkscape:export-filename="D:\TESTINGEMOJI\SVGTEST\1F428.png"
   inkscape:export-xdpi="90"
   inkscape:export-ydpi="90"><metadata
   id="metadata5129"><rdf:RDF><cc:Work
       rdf:about=""><dc:format>image/svg+xml</dc:format><dc:type
         rdf:resource="http://purl.org/dc/dcmitype/StillImage" /><dc:title></dc:title></cc:Work></rdf:RDF></metadata><defs
   id="defs5127" /><sodipodi:namedview
   pagecolor="#ffffff"
   bordercolor="#666666"
   borderopacity="1"
   objecttolerance="10"
   gridtolerance="10"
   guidetolerance="10"
   inkscape:pageopacity="0"
   inkscape:pageshadow="2"
   inkscape:window-width="640"
   inkscape:window-height="480"
   id="namedview5125"
   showgrid="false"
   inkscape:zoom="3.6875"
   inkscape:cx="32"
   inkscape:cy="32"
   inkscape:window-x="351"
   inkscape:window-y="272"
   inkscape:window-maximized="0"
   inkscape:current-layer="Layer_1" />
<g
   id="g5087"
   transform="translate(0,2)">
	<path
   d="M 55.415,2.021 C 46.527,-3.559 42.18,3.715 36.03,13.504 29.873,23.297 24.244,31.886 33.132,37.47 42.041,43.077 54.243,39.665 60.394,29.883 66.543,20.102 64.323,7.622 55.415,2.021 z"
   id="path5089"
   inkscape:connector-curvature="0"
   style="fill:#729aaf" />
	<g
   id="g5091">
		<path
   d="m 53.442,7.105 c -7.227,-4.546 -10.761,1.378 -15.766,9.34 -5.009,7.963 -9.586,14.951 -2.355,19.494 7.245,4.563 17.167,1.782 22.17,-6.174 5.001,-7.953 3.197,-18.105 -4.049,-22.66 z"
   id="path5093"
   inkscape:connector-curvature="0"
   style="fill:#ed2e7c" />
	</g>
	<g
   id="g5095">
		<path
   d="m 8.63,2.021 c 8.887,-5.58 13.235,1.695 19.385,11.484 6.155,9.793 11.784,18.382 2.897,23.966 C 22.002,43.078 9.799,39.666 3.647,29.884 -2.499,20.102 -0.281,7.622 8.63,2.021 z"
   id="path5097"
   inkscape:connector-curvature="0"
   style="fill:#658999" />
	</g>
	<g
   id="g5099">
		<path
   d="m 10.602,7.105 c 7.226,-4.546 10.762,1.378 15.766,9.34 5.009,7.963 9.587,14.951 2.358,19.494 C 21.479,40.502 11.557,37.721 6.552,29.765 1.551,21.812 3.351,11.66 10.602,7.105 z"
   id="path5101"
   inkscape:connector-curvature="0"
   style="fill:#ed2e7c" />
	</g>
	<g
   id="g5103">
		<path
   d="m 18.952,50.034 c 0,-6.332 5.387,-6.215 12.733,-6.215 7.353,0 13.875,-0.117 13.875,6.215 0,6.339 -5.956,11.474 -13.301,11.474 -7.344,0 -13.307,-5.135 -13.307,-11.474 z"
   id="path5105"
   inkscape:connector-curvature="0"
   style="fill:#729aaf" />
	</g>
	<g
   id="g5107">
		<path
   d="m 0.646,37.238 c 0,-17.463 14.151,-31.614 31.613,-31.614 17.462,0 31.613,14.151 31.613,31.614 0,17.46 -14.15,19.19 -31.613,19.19 C 14.797,56.429 0.646,54.698 0.646,37.238 z"
   id="path5109"
   inkscape:connector-curvature="0"
   style="fill:#729aaf" />
	</g>
	<path
   d="M 42.896,54.029 C 22.281,74.037 -8.807,24.805 26.363,6.194 11.721,8.958 0.646,21.792 0.646,37.238 c 0,13.448 8.407,17.553 20.242,18.734 2.335,3.313 6.548,5.535 11.371,5.535 4.822,0 9.036,-2.22 11.367,-5.535 0.102,-0.01 0.192,-0.025 0.288,-0.037 -0.335,-0.635 -0.675,-1.27 -1.018,-1.906 z"
   id="path5111"
   inkscape:connector-curvature="0"
   style="fill:#658999" />
	<g
   id="g5113">
		<path
   d="m 23.923,45.406 c 0,-3.968 3.378,-11.952 7.978,-11.952 4.607,0 8.695,7.984 8.695,11.952 0,3.974 -3.732,7.189 -8.336,7.189 -4.604,10e-4 -8.337,-3.215 -8.337,-7.189 z"
   id="path5115"
   inkscape:connector-curvature="0"
   style="fill:#25333a" />
	</g>
	<g
   id="g5117">
		<ellipse
   cx="20.966999"
   cy="30.881001"
   rx="3.3699999"
   ry="4.086"
   id="ellipse5119"
   sodipodi:cx="20.966999"
   sodipodi:cy="30.881001"
   sodipodi:rx="3.3699999"
   sodipodi:ry="4.086"
   style="fill:#25333a"
   d="m 24.336999,30.881001 c 0,2.256635 -1.5088,4.085999 -3.37,4.085999 -1.861199,0 -3.37,-1.829364 -3.37,-4.085999 0,-2.256636 1.508801,-4.086 3.37,-4.086 1.8612,0 3.37,1.829364 3.37,4.086 z" />
	</g>
	<g
   id="g5121">
		<ellipse
   cx="43.161999"
   cy="31.025"
   rx="3.3699999"
   ry="4.086"
   id="ellipse5123"
   sodipodi:cx="43.161999"
   sodipodi:cy="31.025"
   sodipodi:rx="3.3699999"
   sodipodi:ry="4.086"
   style="fill:#25333a"
   d="m 46.531999,31.025 c 0,2.256635 -1.508801,4.086 -3.37,4.086 -1.8612,0 -3.37,-1.829365 -3.37,-4.086 0,-2.256636 1.5088,-4.086 3.37,-4.086 1.861199,0 3.37,1.829364 3.37,4.086 z" />
	</g>
</g>
</svg>
